X: 579
T: I Pressed Her to my Breast.
T: faisg me i le'm ucd.
N:"Moderate"
B:O'Neill's 579
Z:transcribed by J.B. Walsh walsh@math.ubc.ca
M:C
L:1/8
%Q:65
K:D
A|d>ef>d e2 cA|d>fe>d c A2A|d>ef>g a2 ag|f>ed>e f a2 A|
d>ef>d e2 cA|d>fe>d c A2 A|d>ef>g a2 a>g|f>d Bc d2 z||
a|a>ff>a g2 eg|f>de>d cA2 a|a>ff>a g>bag|f>dde d3a|
a>ff>a g2 e>g|f>de>d c A2 A|d>ef>g a2 a>g|f>d Bc d2||


